X:1340
T:Pat Tuohy's Reel
R:Reel
N:Collected by Tuohy
B:O'Neill's 1340
Z:Transcribed by Trish O'Neil
M:C|
L:1/8
K:Em
BE F3EDE BAFE|D2FD ADFD|BE F3EDE BAFE|13Bcd eg fdec:|23Bcd eg fee2||
e2ge Bege|defg agfg|e2ge Bege|defa gee2|
e2ge Bege|defga2ga|3bag af gefe|3cde fa gee2|]
